packages/icons/src/restore-cache-step.svg

<svg fill="none" viewBox="0 0 26 32" xmlns="http://www.w3.org/2000/svg"><g fill="#4f5162"><path d="m17.6919 0h-13.49141c-2.31608 0-4.20049 1.88408-4.20049 4.20048v23.59902c0 2.3158 1.88408 4.2005 4.20049 4.2005h17.19921c2.3161 0 4.2005-1.8837 4.2005-4.2005v-18.96054zm.5531 3.62038 4.1164 4.60012h-4.1164zm5.3537 24.17912c0 1.2126-.9864 2.199-2.199 2.199h-17.19921c-1.21258 0-2.19899-.9864-2.19899-2.199v-23.59902c0-1.21257.98641-2.19898 2.19899-2.19898h12.04301v8.2205h7.3552z"/><path d="m12.8003 12.2195c-3.93065 0-7.11637 3.1861-7.11637 7.1164s3.18606 7.1163 7.11637 7.1163c3.9299 0 7.116-3.186 7.116-7.1163s-3.1861-7.1164-7.116-7.1164zm-.8774 8.1171 1.7634 1.5078-1.3007 1.5215-4.71318-4.0297 4.71288-4.0303 1.3006 1.5214-1.7636 1.5082h6.0048v2.0011z"/></g></svg>

<svg xmlns="http://www.w3.org/2000/svg" fill="none" viewBox="0 0 26 32"><defs/><path fill="#4F5162" d="M17.6919 0H4.20049C1.88441 0 0 1.88408 0 4.20048V27.7995C0 30.1153 1.88408 32 4.20049 32H21.3997c2.3161 0 4.2005-1.8837 4.2005-4.2005V8.83896L17.6919 0zm.5531 3.62038l4.1164 4.60012H18.245V3.62038zm5.3537 24.17912c0 1.2126-.9864 2.199-2.199 2.199H4.20049c-1.21258 0-2.19899-.9864-2.19899-2.199V4.20048c0-1.21257.98641-2.19898 2.19899-2.19898H16.2435v8.2205h7.3552v17.5775z"/><path fill="#4F5162" d="M12.8003 12.2195c-3.93065 0-7.11637 3.1861-7.11637 7.1164 0 3.9303 3.18606 7.1163 7.11637 7.1163 3.9299 0 7.116-3.186 7.116-7.1163s-3.1861-7.1164-7.116-7.1164zm-.8774 8.1171l1.7634 1.5078-1.3007 1.5215-4.71318-4.0297 4.71288-4.0303 1.3006 1.5214-1.7636 1.5082h6.0048v2.0011h-6.0042z"/></svg>
